X:1
T:The Star-Spangled Banner
T:John Stafford Smith
T:Francis Scott Key
T:National Anthem
%%score [ ( 1 2 ) 3 ] 4 { ( 5 7 ) | ( 6 8 ) }
L:1/8
Q:1/4=120
M:4/4
K:Bb
V:1 treble nm="Soprano/Alto" snm="SA"
V:2 treble 
V:3 bass nm="Baritone" snm="B"
V:4 treble nm="C Trumpet" snm="C Tpt."
V:5 treble nm="Piano" snm="Pno."
V:7 treble 
V:6 bass 
V:8 bass 
V:1
"^Fast 4 - (Call to the Flag)" z8 | z8 | z8 | z8 | z8[Q:1/4=48] || %5
w: |||||
w: |||||
[M:3/4]!f![Q:1/4=92]"^With spirit" F>D |: B,2 D2 F2 | [DB]4 [Dd]3/2 [Dc]/ | [DB]2 D2 [C=E]2 | %9
w: Oh _|say can you|see by the|dawn's ear- ly|
w: |strips and bright|stars thru the|per- i- lous|
 [CF]3 z F F | d3 c B2 | [FA]4 [FG]3/2 [FA]/ | [FB]2 B2 F2 |1 D2 .B,2 F>D :|2 %14
w: light What's so|proud- ly we|hail at the|twi- light's last|gleam- ing? Who's broad|
w: fight, O'er the|ram- parts we|watched were so|gal- lan- ty||
 D2 .B,2!mf![Q:1/4=88]"^a little slower" [Fd]3/2 [Fd]/ || [Bd]2 [ce]2 [df]2 | [df]3 [ce] [Bd]2 | %17
w: stream- ing? And the|roc- kets red|glare, the bombs|
w: |||
 [Ac]2 [Bd]2 [ce]2 | [ce]3 z [Fe]2 | [Fd]3 [Fc] [FB]2 | [FA]4 [FG]3/2 [FA]/ | %21
w: burst- ing in|air, gave|proof thru the|night that our|
w: ||||
 [FB]2 [B,D]2 [B,=E]2 | [CF]3 z!f![Q:1/4=92]"^a tempo" F F | B2 B2 BA | G2 G2 [FG]2 | %25
w: flag was still|there. Oh, _|say does that _|star- spang- led|
w: ||||
 c2[Q:1/4=82]"^ritard" ed c_B | [C-F-B]4 [CFA]3 z |!ff![Q:1/4=72]"^Maestoso" F F | %28
w: ban- ner _ yet _|wave _|O'er the|
w: |||
 [FB]3 [Ac] [Bd] [ce] | [df]4-[Q:1/4=60] !fermata![dfb]3 z |[Q:1/4=72] B [Bc] | d3 e c4 | %32
w: land _ of the|free _|and the|home of *|
w: ||||
!mf!!<(! [_GB-]4!f! [_AB-]4!<)! |!ff! [FBf]6- | [FBf]6 |] %35
w: brave! _|_||
w: |||
V:2
 x8 | x8 | x8 | x8 | x8 ||[M:3/4] x2 |: x6 | x6 | x6 | x6 | B,3 C DE | x6 | x6 |1 x6 :|2 x6 || x6 | %16
w: ||||||||||||||||
 x6 | x6 | x6 | x6 | x6 | x6 | x6 | F2 FE DF | x6 | E2 EF G2 | x8 | x2 | x6 | x8 | x2 | %31
w: |||||||||||||||
 B3 G B2 A2 | x8 | x6 | x6 |] %35
w: * * the _||||
V:3
 z8 | z8 | z8 | z8 | z8 ||[M:3/4]!f! F,>D, |: B,,2 B,2 A,2 | G,4 ^F,3/2 F,/ | G,2 B,2 B,2 | %9
 A,3 z F, F, | B,3 F, B,2 | F,4 E,3/2 E,/ | D,2 B,2 F,2 |1 D,2 .B,,2 F,>F, :|2 %14
 D,2 .B,,2!mf! B,3/2 B,/ || B,2 B,2 B,2 | B,3 B, B,2 | F,2 F,2 F,2 | F,3 z A,2 | B,3 F, D,2 | %20
 F,4 E,3/2 E,/ | D,2 G,2 C2 | A,3 z!f! F, E, | D,E, D,C, B,,D, | E,F, G,F, E,D, | C,2 C,D, E,=E, | %26
 F,4- F,3 z |!ff! F, E, | D,3 F, B, C | D4- !fermata!D3 z | G, _G, | F,3 [F,B,] [F,C]4 | %32
!mf!!<(! [_G,B,]4!f! [_A,C]4!<)! |!ff! [B,D]6- | [B,D]6 |] %35
V:4
 z2 z2 z2!mf! A>A | c2 F>F A2 C>C | F2 F>F F2 FA | cAFC cAFC | F2 F>F !fermata!F4 ||[M:3/4] z2 |: %6
 z6 | z6 | z6 | z6 | z6 | z6 | z6 |1 z6 :|2 z6 || z6 | z6 | z6 | z6 | z6 | z6 | z6 | z6 | z6 | z6 | %25
 z6 | z8 | z2 | z6 | z8 | z2 | z8 | z8 | z6 | z6 |] %35
V:5
 z8 | z8 | z8 | z8 | z8 ||[M:3/4]!f! F>D |: B,2 D2 [CF]2 | [B,DB]4 [DAd]>[DAc] | %8
 [DGB]2 [B,D]2 [B,C=E]2 | [A,CF]4 FF | [DFd]3 [CFc] [B,FB]2 | [CFA]4 [CFG]>[CFA] | [B,FB]2 B2 F2 |1 %13
 D2 B,2 F>D :|2 D2 B,2!mf! [FBd]>[FBd] || [FBd]2 [Fce]2 [Fdf]2 | [Fdf]3 [Fce] [FBd]2 | %17
 [FAc]2 [FBd]2 [Fce]2 | [Fce]4 [FAe]2 | [FBd]3 [EFc] [DFB]2 | [CFA]4 [CFG]>[CFA] | %21
 [B,FB]2 [B,D]2 [B,C=E]2 | [A,CF]4!f! [A,F]2 | [B,FB]2 [B,B]2 BA | [EG]2 [B,EG]2 [=B,FG]2 | %25
 [CEGc]2 [EGe][DFGd] [CGc][CG_B] | B4 [A,A]4 |!ff! F[A,F] | [B,FB]3 [FAc] [FBd][Fce] | %29
 [FBdf]4!8va(! !fermata![bb']4!8va)! | [EB][EBc] | [DFBd]3 [EGBe] [CEc]4 |!mf!!<(! B4-!f! B4!<)! | %33
!ff! [Bdf]6- | [Bdf]6 |] %35
V:6
"^(simulated snare drum)"!f!"^Piano"!ped! (6:4:6F,,,/!>(!F,,/F,,,/F,,/F,,,/F,,/(6:4:6F,,,/F,,/F,,,/F,,/F,,,/F,,/(6:4:6F,,,/F,,/F,,,/F,,/F,,,/F,,/!ped-up!!>)!!mp!!ped!(6:4:6F,,,/F,,/F,,,/F,,/F,,,/F,,/!ped-up! | %1
!ped! (6:4:6F,,,/F,,/F,,,/F,,/F,,,/F,,/(6:4:6F,,,/F,,/F,,,/F,,/F,,,/F,,/(6:4:6F,,,/F,,/F,,,/F,,/F,,,/F,,/!ped-up!!ped!(6:4:6F,,,/F,,/F,,,/F,,/F,,,/F,,/!ped-up! | %2
"^Pno."!ped! (6:4:6F,,,/F,,/F,,,/F,,/F,,,/F,,/(6:4:6F,,,/F,,/F,,,/F,,/F,,,/F,,/(6:4:6F,,,/F,,/F,,,/F,,/F,,,/F,,/!ped-up!!ped!(6:4:6F,,,/F,,/F,,,/F,,/F,,,/F,,/!ped-up! | %3
!ped! (6:4:6F,,,/F,,/F,,,/F,,/F,,,/F,,/(6:4:6F,,,/F,,/F,,,/F,,/F,,,/F,,/(6:4:6F,,,/F,,/F,,,/F,,/F,,,/F,,/!ped-up!!ped!(6:4:6F,,,/F,,/F,,,/F,,/F,,,/F,,/!ped-up! | %4
!ped! (6:4:6F,,,/F,,/F,,,/F,,/F,,,/F,,/(6:4:6F,,,/F,,/F,,,/F,,/F,,,/F,,/ !fermata![F,,,F,,]4!ped-up! || %5
[M:3/4] z2 |: B,,2 [B,,B,]2 [A,,A,]2 | [G,,G,]4 [^F,,^F,]>[F,,F,] | [G,,G,]2 [G,,G,]2 [C,,C,]2 | %9
 [F,,F,]4 [F,,F,]2 | [B,,,B,,]3 [C,,C,] [D,,D,][E,,E,] | [F,,F,]4 [E,,E,]>[E,,E,] | %12
 [D,,D,]2 [B,,B,]2 [F,,F,]2 |1 [D,,D,]2 [B,,,B,,]2 F,,2 :|2 [D,,D,]2 [B,,,B,,]2 [B,D]>[B,D] || %15
 [B,D]2 [CE]2 D2 | D3 [F,CE] [F,B,D]2 | [F,A,C]2 [F,B,D]2 [F,CE]2 | %18
 [F,CE]2 !>![F,,,F,,]2 [F,,F,]2 | [B,,,B,,]3 [C,,C,] [D,,D,]2 | [F,,F,]4 [E,,E,]2 | %21
 [D,,D,]2 [G,,D,]2 [C,,C,]2 | [F,,C,]4 [F,,F,][E,,E,] | %23
 [D,,D,][E,,E,] [D,,D,][C,,C,] [B,,,B,,][D,,D,] | [E,,E,][F,,F,] [G,,G,][F,,F,] [E,,E,][D,,D,] | %25
 [C,,C,]2 [C,,C,][D,,D,] [E,,E,][=E,,=E,] | [F,,F,]8 | [F,,F,][E,,E,] | %28
 [D,,D,]3 [F,,F,] [B,,B,][C,C] | [D,D]4- !fermata![D,D]4 | [G,,G,][_G,,_G,] | %31
 [F,,F,]2 !>![F,,,F,,]!>![F,,,F,,] !>![F,,,F,,]4 | [_G,,,_G,,]4 [_A,,,_A,,]4 | z6 | %34
 [D,F,B,]>[D,F,B,] [D,F,B,]4 |] %35
V:7
 x8 | x8 | x8 | x8 | x8 ||[M:3/4] x2 |: x6 | x6 | x6 | x4 [A,_E]2 | x6 | x6 | x6 |1 x6 :|2 x6 || %15
 x6 | x6 | x6 | x6 | x6 | x6 | x6 | x6 | x6 | x6 | x6 | [CF]8 | x2 | x6 | x4!8va(! x4!8va)! | x2 | %31
 x4 B2 A2 | [B,_D_G]4 [CE_A]4 | [B,DF]6- | [B,DF]6 |] %35
V:8
 x8 | x8 | x8 | x8 | x8 ||[M:3/4] x2 |: x6 | x6 | x6 | x6 | x6 | x6 | x6 |1 x6 :|2 x6 || x6 | %16
 z2 !>![F,,,F,,]4 | x6 | x6 | x6 | x6 | x6 | x6 | x6 | x6 | x6 | x8 | x2 | x6 | x8 | x2 | x8 | x8 | %33
 x6 | [B,,,B,,]>[B,,,B,,] [B,,,B,,]4 |] %35

